X: 4
T: Hardiman The Fiddler
R: slip jig
M: 9/8
L: 1/8
K: Ador
|:Bee def f2g|Bee ege dBA| Bee def g2a|bge ege dBA:|
|:B2A GAB G2A|BAB GAB dBA|BAB A2B G2A|Bee ege dBA:|


Tune 48	Setting 26071

